!!!COM: Bach, Johann Sebastian
!!!OPR: Joh. Seb. Bachs vierstimmige Choralgesänge
!!!XEN: Four-part Chorales
!!!OTL: 68. Gottlob, es geht nunmehr zum Ende
!!!SCT: BWV 321
!!!SCA: Thematisch-systematisches Verzeichnis der musikalischen Werke Johann Sebastian Bach: Bach-Werke-Verzeichnis (Schmieder)
!!!YOR: Bach Gesellschaft Edition xxxix
!!!ENC: Steven Rasmussen
!!!CDT: 1685/3//-1750/7/28/
!!!OCY: Deutschland
!!!YEC: Copyright (c) 1994, 2000 Center for Computer Assisted Research in the Humanities
!!!YEM: Rights to all derivative editions reserved
!!!YEN: United States of America
**kern	**silbe	**kern	**silbe	**kern	**silbe	**kern	**silbe
*I:[SOPRANO]	*I:[SOPRANO]	*I:[ALTO]	*I:[ALTO]	*I:[TENORE]	*I:[TENORE]	*I:[BASSO]	*I:[BASSO]
*>[A,A,B]	*>[A,A,B]	*>[A,A,B]	*>[A,A,B]	*>[A,A,B]	*>[A,A,B]	*>[A,A,B]	*>[A,A,B]
*>A	*>A	*>A	*>A	*>A	*>A	*>A	*>A
*clefG2	*	*clefG2	*	*clefGv2	*	*clefF4	*
*k[b-e-]	*	*k[b-e-]	*	*k[b-e-]	*	*k[b-e-]	*
*B-:	*	*B-:	*	*B-:	*	*B-:	*
*M3/4	*	*M3/4	*	*M3/4	*	*M3/4	*
=1-	=1-	=1-	=1-	=1-	=1-	=1-	=1-
4dd	Gott-mein	4f	.	4B-	.	4BB-	.
4b-	-lob,Je-	4f	.	4B-	.	4D	.
4dd	es-sus	4b-	.	4f	.	4BB-	.
=2	=2	=2	=2	=2	=2	=2	=2
2ee-	gehtreicht	4b-	.	4e-	.	4C	.
.	.	4a	.	4c	.	4F	.
4dd	nun-mir	4f	.	[4B-	nun-mir	4B-	nun-mir
=3	=3	=3	=3	=3	=3	=3	=3
2cc	-mehrschon	(4g	.	4B-]	.	(4En	-mehrschon
.	.	4.f)	.	4A	-mehrschon	4F)	.
4b-	zumdie	.	.	4B-	zumdie	4G	zumdie
.	.	8en	.	.	.	.	.
=4	=4	=4	=4	=4	=4	=4	=4
2cc	En-HÃ¤n-	2a	.	2f	.	2F	.
4cc;	-de,-de,	4a;	.	4f;	.	4F;	.
=5	=5	=5	=5	=5	=5	=5	=5
4dd	dermein	4b-	.	4f	.	4BB-	.
4dd	mei-Je-	8fL	.	8B-L	.	4D	.
.	.	8aJ	.	8cJ	.	.	.
4dd	-ste-sus,	8gL	.	4d	.	4BB-	.
.	.	8fJ	.	.	.	.	.
=6	=6	=6	=6	=6	=6	=6	=6
2g	Kampfder	2en	.	2c	.	4C	.
.	.	.	.	.	.	4BB-	.
4a	istmich	[4f	istmich	4c	.	4AA	.
=7	=7	=7	=7	=7	=7	=7	=7
2b-	nunse-	4f]	.	(4d	nunse-	2GG	.
.	.	8enL	nunse-	4B-)	.	.	.
.	.	8dJ	.	.	.	.	.
4b-	voll--lig	4e	voll--lig	4c	voll--lig	4C	.
=8	=8	=8	=8	=8	=8	=8	=8
2.a;	-bracht;macht.	2.f;	.	2.c;	.	2.FF;	.
=9:|!	=9:|!	=9:|!	=9:|!	=9:|!	=9:|!	=9:|!	=9:|!
*>B	*>B	*>B	*>B	*>B	*>B	*>B	*>B
4f	Drum	4c	.	4A	.	4F	.
4cc	las-	4c	.	4G	.	4En	.
4cc	-set	4en	.	4G	.	4C	.
=10	=10	=10	=10	=10	=10	=10	=10
2cc	mich,	2f	.	2A	.	4F	.
.	.	.	.	.	.	4E-	.
4dd	ich	[4b-	-ich	4f	-ich	4D	.
=11	=11	=11	=11	=11	=11	=11	=11
2ee-	rei-	4b-]	.	4g	rei-	2C	.
.	.	8aL	rei-	4e-	.	.	.
.	.	8gJ	.	.	.	.	.
4ee-	-ne	4a	-se	4f	-se	4F	.
=12	=12	=12	=12	=12	=12	=12	=12
2.dd;	fort,	2.b-;	.	2.f;	.	2.BB-;	.
=13	=13	=13	=13	=13	=13	=13	=13
4ff	mein	4f	.	4d	.	4BB-	.
4ff	Je-	8b-L	.	8B-L	.	4D	.
.	.	8aJ	.	8cJ	.	.	.
4ff	-sus	4b-	.	4d	.	4BB-	.
=14	=14	=14	=14	=14	=14	=14	=14
2.ee-	ist	(4g	.	2c	.	(4C	.
.	.	4cc)	.	.	.	4AA)	.
.	.	4a	mein	4f	mein	4FF	.
=15	=15	=15	=15	=15	=15	=15	=15
4dd	mein	4b-	letz-	2f	letz-	(4BB-	.
4dd	letz-	(4.b-	-tes	.	.	4D)	.
4cc	-tes	.	.	8.fL	-tes	4F	.
.	.	8a)	.	.	.	.	.
.	.	.	.	16e-Jk	.	.	.
=16	=16	=16	=16	=16	=16	=16	=16
2.b-;	Wort.	2.f;	.	2.d;	.	2.BB-;	.
==|!	==|!	==|!	==|!	==|!	==|!	==|!	==|!
*-	*-	*-	*-	*-	*-	*-	*-
!!!RWG: Key is interpreted using the Humdrum key tool.
!!!END: 1994/06/06
!!!EMD: Converted from MuseData to Humdrum Dec 19, 2000, by Andreas Kornstaedt using muse2kern.
!!!EED: Craig Stuart Sapp
!!!EEV: 2024/03/31
!!!ONB: Some non-unicode characters
